icons/type-icons/icons/application-vnd.visio.svg

<?xml version="1.0" encoding="UTF-8"?>
<svg id="svg2" width="22" height="22" version="1.1" xmlns="http://www.w3.org/2000/svg" xmlns:cc="http://creativecommons.org/ns#" xmlns:dc="http://purl.org/dc/elements/1.1/" xmlns:rdf="http://www.w3.org/1999/02/22-rdf-syntax-ns#">
 <metadata id="metadata3874">
  <rdf:RDF>
   <cc:Work rdf:about="">
    <dc:format>image/svg+xml</dc:format>
    <dc:type rdf:resource="http://purl.org/dc/dcmitype/StillImage"/>
   </cc:Work>
  </rdf:RDF>
 </metadata>
 <path id="path4146" d="m16.5 2-3 3h-5.5508a2.5 2.5 0 0 0-2.4492-2 2.5 2.5 0 0 0-2.5 2.5 2.5 2.5 0 0 0 2 2.4453v9.0547h3v2h5v-2h4v-8.5l3-3-3.5-3.5zm0 1.4004 2.0996 2.0996-2.0996 2.0996-2.0996-2.0996 2.0996-2.0996zm-11 0.59961a1.5 1.5 0 0 1 1.5 1.5 1.5 1.5 0 0 1-1.5 1.5 1.5 1.5 0 0 1-1.5-1.5 1.5 1.5 0 0 1 1.5-1.5zm2.4453 2h5.5547l2.5 2.5v7.5h-3v-2h-5v2h-2v-8.0508a2.5 2.5 0 0 0 1.9453-1.9492zm1.0547 9h3v3h-3v-3z" fill="#3c559f"/>
</svg>

<?xml version="1.0" encoding="UTF-8" standalone="no"?>
<!-- Created with Inkscape (http://www.inkscape.org/) -->

<svg
   xmlns:dc="http://purl.org/dc/elements/1.1/"
   xmlns:cc="http://creativecommons.org/ns#"
   xmlns:rdf="http://www.w3.org/1999/02/22-rdf-syntax-ns#"
   xmlns:svg="http://www.w3.org/2000/svg"
   xmlns="http://www.w3.org/2000/svg"
   xmlns:sodipodi="http://sodipodi.sourceforge.net/DTD/sodipodi-0.dtd"
   xmlns:inkscape="http://www.inkscape.org/namespaces/inkscape"
   width="22"
   version="1.1"
   height="22"
   id="svg2"
   inkscape:version="0.91 r13725"
   sodipodi:docname="application-vnd.visio.svg">
  <sodipodi:namedview
     pagecolor="#ffffff"
     bordercolor="#666666"
     borderopacity="1"
     objecttolerance="10"
     gridtolerance="10"
     guidetolerance="10"
     inkscape:pageopacity="0"
     inkscape:pageshadow="2"
     inkscape:window-width="1360"
     inkscape:window-height="708"
     id="namedview7"
     showgrid="true"
     inkscape:zoom="10.011011"
     inkscape:cx="12.402356"
     inkscape:cy="8.994274"
     inkscape:window-x="0"
     inkscape:window-y="0"
     inkscape:window-maximized="1"
     inkscape:current-layer="svg2">
    <inkscape:grid
       type="xygrid"
       id="grid4140" />
  </sodipodi:namedview>
  <defs
     id="defs3871" />
  <metadata
     id="metadata3874">
    <rdf:RDF>
      <cc:Work
         rdf:about="">
        <dc:format>image/svg+xml</dc:format>
        <dc:type
           rdf:resource="http://purl.org/dc/dcmitype/StillImage" />
      </cc:Work>
    </rdf:RDF>
  </metadata>
  <path
     style="opacity:1;fill:#3c559f;fill-opacity:1;stroke:none;stroke-width:2;stroke-miterlimit:4;stroke-dasharray:none;stroke-opacity:1"
     d="M 16.5 2 L 13.5 5 L 7.9492188 5 A 2.5 2.5 0 0 0 5.5 3 A 2.5 2.5 0 0 0 3 5.5 A 2.5 2.5 0 0 0 5 7.9453125 L 5 17 L 6 17 L 8 17 L 8 19 L 13 19 L 13 17 L 16 17 L 17 17 L 17 8.5 L 20 5.5 L 16.5 2 z M 16.5 3.4003906 L 18.599609 5.5 L 16.5 7.5996094 L 14.400391 5.5 L 16.5 3.4003906 z M 5.5 4 A 1.5 1.5 0 0 1 7 5.5 A 1.5 1.5 0 0 1 5.5 7 A 1.5 1.5 0 0 1 4 5.5 A 1.5 1.5 0 0 1 5.5 4 z M 7.9453125 6 L 13.5 6 L 16 8.5 L 16 16 L 13 16 L 13 14 L 8 14 L 8 16 L 6 16 L 6 7.9492188 A 2.5 2.5 0 0 0 7.9453125 6 z M 9 15 L 12 15 L 12 18 L 9 18 L 9 15 z "
     id="path4146" />
</svg>
